X:1
T:Fieber Brunner
C:Trad.
O:Deutschland
Z:Bart Vanhaverbeke 
L:1/8
M:2/4
K:F
cc/c/ cB | BA A2 | FA d>c | cB B2 | BB/B/ BA | GG Gc |e>d e>d | dc c z |
cc/c/ cB | BA A2 | FA d>c | cB B2 | BB/B/ BA | GG Gc |e>d c/^c/d/e/ |[M:3/4] ff/f/ f2 C2 ||
M:3/4
A3 A A2 | A2 G2 A2 | B2 z2 z2 | z2 z2 C2 | B3 B B2 | B2 A2 B2 c2 z2 z2 | z2 z2 C2 |
c3 c c2 | c2 B2 c2 | d2 z2 z2 | z2 z2 d2 | c3 d c2 | B2 A2 G2 ||
F4 A2 | C4 F2 | E4 G2 | C6 | E4 G2 | C4 E2 | F4 A2 | C6 |
F4 A2 | C4 F2 | E4 G2 | C6 | E4 G2 | C2 D2 E2 | F3 F F2 | F2 z2 z2 ||
